(
a = Mel2(Contrapunctum([3, 4, 2, 3]));
a.browse;
a = Mel2([3, 4, 2, 3]);
a.browse;
a = Mel2(3, 4, 2, 3);
a.browse;
)

(
a = Fux2(Contrapunctum([3, 4, 2, 3]).postln);
a.browse;
a = Fux2([3, 4, 2, 3]);
a.browse;
a = Fux_r2(Contrapunctum([3, 4, 2, 3]).postln);
a.browse;
)
